flaticon/gastronomy/salami.svg

<svg xmlns="http://www.w3.org/2000/svg" width="32" height="32" viewBox="0 0 24 24">
    <path d="M 19.609375 2.382812 L 7.480469 2.382812 C 5.121094 2.382812 3.125 3.953125 2.476562 6.101562 L 1.203125 5.148438 C 0.941406 4.949219 0.597656 4.945312 0.328125 5.128906 C 0.0546875 5.316406 -0.0585938 5.640625 0.03125 5.953125 L 0.550781 7.777344 L 0.164062 8.546875 C 0.0273438 8.824219 0.0703125 9.152344 0.277344 9.386719 C 0.425781 9.546875 0.625 9.632812 0.835938 9.632812 C 0.921875 9.632812 1.011719 9.617188 1.101562 9.585938 L 2.464844 9.074219 C 3.101562 11.246094 5.105469 12.835938 7.480469 12.835938 L 19.609375 12.835938 C 22.277344 12.835938 24 10.785156 24 7.609375 C 24 4.433594 22.277344 2.382812 19.609375 2.382812 Z M 2.292969 8.246094 L 1.011719 8.726562 L 1.316406 8.121094 C 1.398438 7.953125 1.417969 7.761719 1.363281 7.578125 L 0.90625 5.96875 L 2.289062 7.007812 C 2.265625 7.207031 2.253906 7.40625 2.253906 7.609375 C 2.253906 7.816406 2.269531 8.023438 2.292969 8.222656 C 2.292969 8.230469 2.292969 8.238281 2.292969 8.246094 Z M 7.480469 12 C 5.378906 12 3.621094 10.515625 3.191406 8.542969 L 3.171875 8.4375 C 3.144531 8.296875 3.121094 8.160156 3.109375 8.023438 C 3.097656 7.886719 3.089844 7.75 3.089844 7.609375 C 3.089844 7.488281 3.097656 7.367188 3.105469 7.25 C 3.117188 7.136719 3.132812 7.019531 3.152344 6.894531 L 3.1875 6.691406 C 3.609375 4.707031 5.375 3.21875 7.480469 3.21875 L 17.023438 3.21875 C 16.863281 3.34375 16.710938 3.484375 16.570312 3.636719 L 12.484375 3.636719 C 12.253906 3.636719 12.066406 3.820312 12.066406 4.054688 C 12.066406 4.285156 12.253906 4.472656 12.484375 4.472656 L 15.957031 4.472656 C 15.878906 4.605469 15.808594 4.746094 15.746094 4.890625 L 8.304688 4.890625 C 8.070312 4.890625 7.886719 5.078125 7.886719 5.308594 C 7.886719 5.539062 8.070312 5.726562 8.304688 5.726562 L 15.453125 5.726562 C 15.300781 6.296875 15.21875 6.925781 15.21875 7.609375 C 15.21875 8.292969 15.300781 8.921875 15.453125 9.492188 L 11.339844 9.492188 C 11.109375 9.492188 10.921875 9.675781 10.921875 9.910156 C 10.921875 10.140625 11.109375 10.328125 11.339844 10.328125 L 15.746094 10.328125 C 15.808594 10.472656 15.878906 10.609375 15.957031 10.746094 L 12.53125 10.746094 C 12.300781 10.746094 12.113281 10.933594 12.113281 11.164062 C 12.113281 11.394531 12.300781 11.582031 12.53125 11.582031 L 16.570312 11.582031 C 16.710938 11.734375 16.859375 11.875 17.023438 12 Z M 19.609375 12 C 16.988281 12 16.054688 9.730469 16.054688 7.609375 C 16.054688 5.484375 16.988281 3.21875 19.609375 3.21875 C 22.230469 3.21875 23.164062 5.484375 23.164062 7.609375 C 23.164062 9.730469 22.230469 12 19.609375 12 Z M 19.609375 12"/>
    <path d="M20.695312 7.777344C20.515625 7.78125 20.367188 7.953125 20.367188 8.160156 20.367188 8.367188 20.515625 8.527344 20.695312 8.519531 20.871094 8.507812 21.011719 8.335938 21.011719 8.136719 21.011719 7.933594 20.871094 7.773438 20.695312 7.777344zM18.144531 8.660156C17.914062 8.671875 17.726562 8.875 17.726562 9.109375 17.726562 9.34375 17.914062 9.519531 18.144531 9.496094 18.371094 9.476562 18.546875 9.277344 18.546875 9.046875 18.546875 8.820312 18.371094 8.648438 18.144531 8.660156zM18.144531 5.734375C18.371094 5.75 18.546875 5.578125 18.546875 5.351562 18.546875 5.125 18.371094 4.921875 18.144531 4.894531 17.914062 4.871094 17.726562 5.039062 17.726562 5.277344 17.726562 5.511719 17.917969 5.714844 18.144531 5.734375zM21.320312 9.5625C21.152344 9.582031 21.011719 9.757812 21.011719 9.960938 21.011719 10.164062 21.152344 10.304688 21.320312 10.28125 21.488281 10.257812 21.621094 10.078125 21.621094 9.882812 21.621094 9.6875 21.488281 9.542969 21.320312 9.5625zM19.675781 9.355469C19.273438 9.390625 18.9375 9.785156 18.9375 10.230469 18.9375 10.675781 19.273438 10.980469 19.675781 10.914062 20.0625 10.851562 20.367188 10.460938 20.367188 10.046875 20.367188 9.628906 20.0625 9.320312 19.675781 9.355469zM20.027344 5.488281C20.402344 5.523438 20.695312 5.21875 20.695312 4.808594 20.695312 4.398438 20.402344 4.015625 20.027344 3.957031 19.640625 3.890625 19.3125 4.191406 19.3125 4.628906 19.3125 5.066406 19.640625 5.453125 20.027344 5.488281zM18.144531 7.40625C18.144531 7.867188 18.507812 8.230469 18.9375 8.210938 19.351562 8.195312 19.675781 7.835938 19.675781 7.40625 19.675781 6.976562 19.351562 6.613281 18.9375 6.597656 18.507812 6.582031 18.144531 6.945312 18.144531 7.40625zM21.472656 5.621094C21.222656 5.597656 21.011719 5.824219 21.011719 6.128906 21.011719 6.429688 21.222656 6.683594 21.472656 6.691406 21.714844 6.703125 21.910156 6.472656 21.910156 6.1875 21.910156 5.898438 21.714844 5.644531 21.472656 5.621094zM12.417969 16.167969C11.765625 14.789062 10.105469 13.996094 7.867188 13.996094 5.632812 13.996094 3.972656 14.789062 3.320312 16.167969 2.949219 16.953125 2.984375 17.582031 3.144531 18.054688 2.9375 18.773438 3.035156 19.449219 3.4375 20.023438 4.15625 21.039062 5.773438 21.617188 7.867188 21.617188 9.964844 21.617188 11.582031 21.035156 12.300781 20.023438 12.703125 19.449219 12.800781 18.769531 12.59375 18.054688 12.753906 17.582031 12.789062 16.953125 12.417969 16.167969zM4.074219 16.527344C4.800781 15 6.96875 14.832031 7.867188 14.832031 8.769531 14.832031 10.9375 15 11.660156 16.527344 11.898438 17.03125 11.933594 17.484375 11.761719 17.878906 11.742188 17.921875 11.71875 17.96875 11.695312 18.011719 11.6875 18.023438 11.683594 18.035156 11.675781 18.046875 11.664062 18.0625 11.652344 18.078125 11.644531 18.09375 11.582031 18.183594 11.515625 18.273438 11.433594 18.355469 11.425781 18.359375 11.421875 18.363281 11.417969 18.367188 11.335938 18.449219 11.242188 18.523438 11.140625 18.59375 11.125 18.605469 11.113281 18.617188 11.097656 18.625 11 18.695312 10.886719 18.753906 10.773438 18.816406 10.746094 18.828125 10.71875 18.84375 10.691406 18.855469 10.578125 18.910156 10.453125 18.960938 10.324219 19.007812 10.289062 19.019531 10.253906 19.03125 10.21875 19.042969 10.085938 19.089844 9.945312 19.128906 9.804688 19.164062 9.761719 19.171875 9.722656 19.183594 9.683594 19.191406 9.53125 19.226562 9.375 19.253906 9.210938 19.28125 9.175781 19.285156 9.140625 19.289062 9.105469 19.292969 8.933594 19.316406 8.75 19.339844 8.5625 19.351562 8.542969 19.351562 8.519531 19.355469 8.496094 19.355469 8.292969 19.367188 8.082031 19.375 7.867188 19.375 7.652344 19.375 7.441406 19.367188 7.238281 19.355469 7.21875 19.355469 7.195312 19.351562 7.171875 19.351562 6.984375 19.339844 6.804688 19.316406 6.628906 19.292969 6.59375 19.289062 6.558594 19.285156 6.523438 19.28125 6.359375 19.253906 6.203125 19.226562 6.054688 19.191406 6.011719 19.183594 5.972656 19.171875 5.929688 19.164062 5.789062 19.128906 5.652344 19.089844 5.519531 19.046875 5.484375 19.03125 5.445312 19.019531 5.410156 19.007812 5.28125 18.960938 5.160156 18.910156 5.046875 18.855469 5.015625 18.84375 4.988281 18.828125 4.960938 18.8125 4.847656 18.753906 4.738281 18.695312 4.636719 18.628906 4.621094 18.617188 4.609375 18.605469 4.589844 18.59375 4.492188 18.523438 4.402344 18.449219 4.324219 18.371094 4.316406 18.363281 4.308594 18.359375 4.300781 18.351562 4.21875 18.269531 4.152344 18.183594 4.09375 18.097656 4.082031 18.078125 4.070312 18.0625 4.058594 18.046875 4.054688 18.039062 4.050781 18.03125 4.046875 18.023438 4.019531 17.976562 3.992188 17.925781 3.972656 17.875 3.804688 17.480469 3.835938 17.03125 4.074219 16.527344zM11.617188 19.539062C11.066406 20.316406 9.664062 20.78125 7.867188 20.78125 6.074219 20.78125 4.671875 20.316406 4.121094 19.539062 4.03125 19.410156 3.964844 19.277344 3.925781 19.132812 3.941406 19.148438 3.964844 19.160156 3.980469 19.175781 4.042969 19.222656 4.105469 19.265625 4.171875 19.3125 4.238281 19.355469 4.308594 19.398438 4.378906 19.441406 4.453125 19.484375 4.53125 19.527344 4.609375 19.570312 4.6875 19.605469 4.765625 19.640625 4.847656 19.675781 4.976562 19.730469 5.113281 19.78125 5.257812 19.832031 5.367188 19.867188 5.476562 19.90625 5.597656 19.9375 5.683594 19.960938 5.777344 19.980469 5.871094 20 5.980469 20.027344 6.09375 20.050781 6.210938 20.070312 6.304688 20.089844 6.394531 20.101562 6.488281 20.117188 6.625 20.136719 6.769531 20.152344 6.910156 20.164062 6.992188 20.171875 7.070312 20.179688 7.152344 20.1875 7.386719 20.203125 7.621094 20.210938 7.867188 20.210938 8.113281 20.210938 8.351562 20.203125 8.582031 20.1875 8.664062 20.179688 8.742188 20.171875 8.824219 20.164062 8.96875 20.152344 9.109375 20.136719 9.25 20.113281 9.34375 20.101562 9.433594 20.089844 9.523438 20.070312 9.640625 20.050781 9.757812 20.027344 9.871094 20 9.960938 19.980469 10.050781 19.960938 10.140625 19.9375 10.265625 19.902344 10.386719 19.863281 10.503906 19.824219 10.636719 19.777344 10.761719 19.730469 10.882812 19.675781 10.964844 19.640625 11.050781 19.605469 11.128906 19.566406 11.207031 19.527344 11.28125 19.484375 11.355469 19.441406 11.429688 19.398438 11.496094 19.355469 11.566406 19.308594 11.632812 19.265625 11.695312 19.222656 11.757812 19.171875 11.773438 19.160156 11.796875 19.144531 11.8125 19.132812 11.773438 19.277344 11.707031 19.410156 11.617188 19.539062zM11.617188 19.539062"/>
    <path d="M6.707031 17.375C6.6875 17.546875 6.855469 17.691406 7.078125 17.691406 7.300781 17.691406 7.488281 17.546875 7.488281 17.375 7.492188 17.210938 7.324219 17.082031 7.117188 17.082031 6.90625 17.082031 6.722656 17.210938 6.707031 17.375zM6.535156 15.84375C6.71875 15.84375 6.875 15.75 6.886719 15.636719 6.898438 15.527344 6.765625 15.4375 6.59375 15.4375 6.421875 15.4375 6.265625 15.527344 6.246094 15.636719 6.222656 15.75 6.355469 15.84375 6.535156 15.84375zM9.492188 15.84375C9.675781 15.84375 9.796875 15.75 9.765625 15.636719 9.738281 15.527344 9.574219 15.4375 9.402344 15.4375 9.230469 15.4375 9.105469 15.527344 9.125 15.636719 9.148438 15.75 9.3125 15.84375 9.492188 15.84375zM5.570312 17.691406C5.34375 17.691406 5.117188 17.839844 5.0625 18.027344 5 18.222656 5.144531 18.386719 5.382812 18.386719 5.621094 18.386719 5.855469 18.222656 5.898438 18.027344 5.941406 17.839844 5.792969 17.691406 5.570312 17.691406zM5.21875 17.082031C5.636719 17.082031 6.023438 16.832031 6.078125 16.542969 6.128906 16.273438 5.863281 16.066406 5.492188 16.066406 5.117188 16.066406 4.742188 16.273438 4.648438 16.542969 4.546875 16.832031 4.800781 17.082031 5.21875 17.082031zM9.710938 16.804688C9.78125 17.113281 10.191406 17.375 10.625 17.375 11.058594 17.375 11.304688 17.113281 11.183594 16.804688 11.070312 16.515625 10.675781 16.296875 10.289062 16.296875 9.90625 16.296875 9.644531 16.515625 9.710938 16.804688zM7.863281 16.542969C8.257812 16.542969 8.558594 16.324219 8.53125 16.066406 8.503906 15.824219 8.199219 15.636719 7.847656 15.636719 7.492188 15.636719 7.195312 15.824219 7.179688 16.066406 7.164062 16.324219 7.46875 16.542969 7.863281 16.542969zM9.484375 18.769531C9.855469 18.769531 10.097656 18.507812 10.027344 18.203125 9.960938 17.914062 9.640625 17.691406 9.304688 17.691406 8.96875 17.691406 8.71875 17.914062 8.75 18.203125 8.78125 18.507812 9.109375 18.769531 9.484375 18.769531zM9.484375 18.769531"/>
</svg>

<svg xmlns="http://www.w3.org/2000/svg" width="32" height="32" viewBox="0 0 24 24">
    <path d="M19.61 2.383H7.48a5.234 5.234 0 0 0-5.003 3.719l-1.274-.954a.739.739 0 0 0-.875-.02.738.738 0 0 0-.297.825l.52 1.824-.387.77a.756.756 0 0 0 .113.84.755.755 0 0 0 .825.199l1.363-.512a5.233 5.233 0 0 0 5.015 3.762h12.13c2.667 0 4.39-2.05 4.39-5.227 0-3.175-1.723-5.226-4.39-5.226zM2.292 8.246l-1.281.48.304-.605a.746.746 0 0 0 .047-.543l-.457-1.61 1.383 1.04a5.128 5.128 0 0 0 .004 1.215v.023zM7.48 12a4.398 4.398 0 0 1-4.289-3.457l-.02-.105a3.934 3.934 0 0 1-.081-.829c0-.12.008-.242.015-.359.012-.113.028-.23.047-.355l.035-.204A4.394 4.394 0 0 1 7.48 3.22h9.543c-.16.125-.312.265-.453.418h-4.086a.418.418 0 0 0 0 .836h3.473a3.803 3.803 0 0 0-.21.418H8.304a.416.416 0 0 0-.418.418c0 .23.183.418.418.418h7.148c-.152.57-.234 1.199-.234 1.882 0 .684.082 1.313.234 1.883H11.34a.418.418 0 0 0 0 .836h4.406c.063.145.133.281.211.418h-3.426a.418.418 0 0 0 0 .836h4.04c.14.152.288.293.452.418zm12.13 0c-2.622 0-3.555-2.27-3.555-4.39 0-2.126.933-4.391 3.554-4.391 2.621 0 3.555 2.265 3.555 4.39C23.164 9.73 22.23 12 19.61 12zm0 0"/>
    <path d="M20.695 7.777c-.18.004-.328.176-.328.383 0 .207.149.367.328.36.176-.012.317-.184.317-.383 0-.203-.14-.364-.317-.36zm0 0M18.145 8.66a.452.452 0 0 0-.418.45c0 .234.187.41.418.386a.45.45 0 0 0 .402-.45.377.377 0 0 0-.402-.386zm0 0M18.145 5.734a.372.372 0 0 0 .402-.382.466.466 0 0 0-.402-.457.372.372 0 0 0-.418.382c0 .235.191.438.418.457zm0 0M21.32 9.563c-.168.019-.308.195-.308.398s.14.344.308.32c.168-.023.301-.203.301-.398s-.133-.34-.3-.32zm0 0M19.676 9.355c-.403.036-.738.43-.738.875 0 .446.335.75.738.684.387-.062.691-.453.691-.867 0-.418-.305-.727-.691-.692zm0 0M20.027 5.488c.375.035.668-.27.668-.68 0-.41-.293-.792-.668-.851-.386-.066-.715.234-.715.672 0 .437.329.824.715.86zm0 0M18.145 7.406c0 .461.363.824.793.805.414-.016.738-.375.738-.805 0-.43-.324-.793-.738-.808-.43-.016-.793.347-.793.808zm0 0M21.473 5.621c-.25-.023-.461.203-.461.508 0 .3.21.555.46.562.243.012.438-.218.438-.503 0-.29-.195-.543-.437-.567zm0 0M12.418 16.168c-.652-1.379-2.313-2.172-4.55-2.172-2.235 0-3.895.793-4.548 2.172-.37.785-.336 1.414-.175 1.887-.208.718-.11 1.394.292 1.968.72 1.016 2.336 1.594 4.43 1.594 2.098 0 3.715-.582 4.434-1.594.402-.574.5-1.253.293-1.968.16-.473.195-1.102-.176-1.887zm-8.344.36C4.801 15 6.97 14.831 7.867 14.831c.903 0 3.07.168 3.793 1.695.238.504.274.957.102 1.352-.02.043-.043.09-.067.133-.008.011-.011.023-.02.035a1.876 1.876 0 0 1-.242.309.054.054 0 0 0-.015.011 1.998 1.998 0 0 1-.277.227c-.016.011-.028.023-.043.031-.098.07-.211.129-.325.191-.027.012-.054.028-.082.04a3.99 3.99 0 0 1-.367.152l-.105.035a4.618 4.618 0 0 1-.414.121c-.043.008-.082.02-.121.027a7.823 7.823 0 0 1-.473.09l-.106.012a7.459 7.459 0 0 1-.543.059c-.019 0-.042.003-.066.003-.203.012-.414.02-.629.02-.215 0-.426-.008-.629-.02-.02 0-.043-.003-.066-.003a7.702 7.702 0 0 1-.543-.059l-.106-.012a7.153 7.153 0 0 1-.468-.09c-.043-.007-.082-.02-.125-.027a6.28 6.28 0 0 1-.41-.117c-.036-.016-.075-.027-.11-.04a3.905 3.905 0 0 1-.773-.378c-.016-.012-.028-.024-.047-.035a2.163 2.163 0 0 1-.266-.223l-.023-.02a1.737 1.737 0 0 1-.207-.253c-.012-.02-.024-.035-.035-.051l-.012-.024a1.053 1.053 0 0 1-.074-.148c-.168-.395-.137-.844.101-1.348zm7.543 3.011c-.55.777-1.953 1.242-3.75 1.242-1.793 0-3.195-.465-3.746-1.242a1.299 1.299 0 0 1-.195-.406c.015.015.039.027.054.043.063.047.125.09.192.137.066.042.137.085.207.128.074.043.152.086.23.13l.239.105c.129.054.265.105.41.156.11.035.219.074.34.105.086.024.18.043.273.063.11.027.223.05.34.07.094.02.184.032.277.047.137.02.282.035.422.047l.242.023a10.658 10.658 0 0 0 1.43 0l.242-.023c.145-.012.285-.027.426-.05a3.07 3.07 0 0 0 .273-.044c.118-.02.235-.043.348-.07.09-.02.18-.04.27-.063.125-.035.246-.074.363-.113a4.78 4.78 0 0 0 .379-.148c.082-.035.168-.07.246-.11a4.206 4.206 0 0 0 .629-.394c.015-.012.039-.027.055-.04-.04.145-.106.278-.196.407zm0 0"/>
    <path d="M6.707 17.375c-.02.172.148.316.371.316s.41-.144.41-.316c.004-.164-.164-.293-.37-.293-.212 0-.395.129-.411.293zm0 0M6.535 15.844c.184 0 .34-.094.352-.207.011-.11-.121-.2-.293-.2s-.328.09-.348.2c-.023.113.11.207.29.207zm0 0M9.492 15.844c.184 0 .305-.094.274-.207-.028-.11-.192-.2-.364-.2s-.297.09-.277.2c.023.113.188.207.367.207zm0 0M5.57 17.691c-.226 0-.453.149-.508.336-.062.196.083.36.32.36.24 0 .473-.164.516-.36.043-.187-.105-.336-.328-.336zm0 0M5.219 17.082c.418 0 .804-.25.86-.539.05-.27-.216-.477-.587-.477-.375 0-.75.207-.844.477-.101.289.153.539.57.539zm0 0M9.71 16.805c.071.308.481.57.915.57.434 0 .68-.262.559-.57-.114-.29-.508-.508-.895-.508-.383 0-.644.219-.578.508zm0 0M7.863 16.543c.395 0 .696-.219.668-.477-.027-.242-.332-.43-.683-.43-.356 0-.653.188-.668.43-.016.258.289.477.683.477zm0 0M9.484 18.77c.371 0 .614-.262.543-.567-.066-.289-.386-.512-.722-.512-.336 0-.586.223-.555.512.031.305.36.567.734.567zm0 0"/>
</svg>
